X: 907
T: The Fat Man's Fancy.
B:O'Neill's 907
N:"collected by Stack."
Z:Transcribed by Tom Keays (htkeays@mailbox.syr.edu)
Z:Corrected by John Chambers
Z:abc 1.6
M:6/8
R:Jig
L:1/8
K:A
E | A3 BAB | (c3/e/f/g/) agf | gec BAG | AcA BGE |
A3 BAB | (c3/e/f/g/) agf | gec BAG | AcB A2 ||
|| c | f2f fec | efg agf | agf edc | BcB Bce |
f2f fec | efg a2b | c'ba gba | gfg a2 :|


